www/assets/icons/person_add.svg

<svg xmlns="http://www.w3.org/2000/svg" width="24" height="24" viewBox="0 0 24 24" fill='currentColor'><path d="M15 12c2.21 0 4-1.79 4-4s-1.79-4-4-4-4 1.79-4 4 1.79 4 4 4m-9-2V7H4v3H1v2h3v3h2v-3h3v-2zm9 4c-2.67 0-8 1.34-8 4v2h16v-2c0-2.66-5.33-4-8-4"/></svg>

<svg width="24" height="24" viewBox="0 0 24 24" xmlns="http://www.w3.org/2000/svg" fill='currentColor'><path d="M15 12C17.21 12 19 10.21 19 8C19 5.79 17.21 4 15 4C12.79 4 11 5.79 11 8C11 10.21 12.79 12 15 12ZM6 10V7H4V10H1V12H4V15H6V12H9V10H6ZM15 14C12.33 14 7 15.34 7 18V20H23V18C23 15.34 17.67 14 15 14Z"/></svg>
